!!!COM: Bach, Johann Sebastian
!!!OPR: Inventio
!!!OTL: Inventio 5
!!!XEN: Two-part Inventions [for keyboard]
!!!ONM: No. 5
!!!ONB: In E-flat major.
!!!SCT: BWV 776
!!!YEC: Copyright 1994, David Huron
!!!YEM: Rights to all derivative electronic formats reserved.
!! Performance duration: 1:24; performance tempo: 91.4 quarter-notes per minute.
!! (Andras Schiff, piano, "Two-Part Inventions BWV 772a-786; Three-part
!! Inventions BWV 787-801" Decca 411 974-2)
**kern	**kern
*staff2	*staff1
*clefF4	*clefG2
*k[b-e-a-]	*k[b-e-a-]
*E-:	*E-:
*M4/4	*M4/4
*MM91.4	*MM91.4
=1-	=1-
4E-W	8r
.	16e-
.	16d
4EE-	8e-W
.	8f
16r	4gW
16e-	.
16d	.
16e-	.
16c	4a-
16d	.
16B-	.
16c	.
=2	=2
16A-	8r
16c	.
16B-	16f
16c	16e-
16A-	8fW
16B-	.
16G	8g
16A-	.
16F	4a-W
16e-	.
16d	.
16c	.
16d	4b-
16e-	.
16c	.
16d	.
=3	=3
16E-	8g
16e-	.
16d	8cc
16c	.
16d	8b-W
16e-	.
16c	8a-
16d	.
16B-	16g
16e-	16a-
16d	16b-
16c	16a-
16B-	8g
16c	.
16A-	8f
16B-	.
=4	=4
16G	8e-
16c	.
16B-	8g
16A-	.
16G	8b-
16A-	.
16F	[8ee-
16G	.
16C	16ee-]
16B-	16cc
16An	16dd
16G	16ee-
16A	8ff
16B-	.
16G	8ee-
16A	.
=5	=5
8B-	16dd
.	16ee-
16BB-	16ddM
16AAn	16cc
8BB-	16dd
.	16ee-
8C	16cc
.	16dd
4DW	16b-
.	16bb-
.	16aan
.	16bb-
4E-	16gg
.	16aa
.	16ff
.	16gg
=6	=6
8r	16ee-
.	16gg
16C	16ff
16BB-	16gg
8C	16ee-
.	16ff
8D	16dd
.	16ee-
4E-W	16cc
.	16bb-
.	16aan
.	16gg
4F	16aa
.	16bb-
.	16gg
.	16aa
=7	=7
8D	16b-
.	16bb-
8G	16aan
.	16gg
8FM	16aa
.	16bb-
8E-	16gg
.	16aa
16D	16ff
16E-	16bb-
16F	16aa-
16E-	16gg
8D	16ff
.	16gg
8C	16ee-
.	16ff
=8	=8
8BB-	16dd
.	16gg
8D	16ff
.	16ee-
8F	16dd
.	16ee-
[8A-	16cc
.	16dd
16A-]	16f
16F	16ee-
16G	16dd
16A-	16cc
8B-	16dd
.	16ee-
8A-	16cc
.	16dd
=9	=9
16G	8ee-
16A-	.
16G	16b-
16F	16a-
16G	8b-W
16A-	.
16F	8cc
16G	.
16E-	4dd-W
16e-	.
16d-	.
16e-	.
16c	4ee-
16d-	.
16B-	.
16c	.
=10	=10
16A-	8r
16B-	.
16A-	16cc
16G	16b-
16A-	8ccW
16B-	.
16G	8ddn
16A-	.
16F	4ee-W
16f	.
16e-	.
16f	.
16d	4ff
16e-	.
16c	.
16d	.
=11	=11
16B-	8r
16c	.
16B-	16dd
16An	16cc
16B-	8ddW
16c	.
16A-	8ee-
16B-	.
16G	4ffW
16A-	.
16F	.
16G	.
16E-	4gg
16F	.
16D	.
16E-	.
=12	=12
8C	16ee-
.	16ff
16C	16ee-M
16BBn	16dd
8C	16ee-
.	16ff
8D	16dd
.	16ee-
4E-W	16cc
.	16ccc
.	16bb-
.	16ccc
4F	16aa-
.	16bb-
.	16gg
.	16aa-
=13	=13
8r	16ff
.	16aa-
16D	16gg
16C	16aa-
8D	16ff
.	16gg
8E-	16ee-
.	16ff
4FW	16dd
.	16ccc
.	16bbn
.	16aan
4G	16bb
.	16ccc
.	16aa
.	16bb
=14	=14
8E-	16cc
.	16ccc
8A-	16bb-
.	16aa-
8GM	16bb-
.	16ccc
8F	16aa-
.	16bb-
16En	16gg
16F	16ccc
16G	16bb-
16F	16aa-
8E-	16gg
.	16aa-
8D	16ff
.	16gg
=15	=15
8C	16een
.	16aa-
8En	16gg
.	16ff
8G	16ee
.	16ff
[8B-	16dd
.	16ee
16B-]	16g
16G	16ff
16A-	16ee
16B-	16dd
8c	16ee
.	16ff
8B-	16dd
.	16ee
=16	=16
16A-	8ff
16B-	.
16A-	16f
16G	16en
16A-	8fW
16B-	.
16G	8g
16A-	.
16F	4a-W
16f	.
16e-	.
16f	.
16d-	4b-
16e-	.
16c	.
16d-	.
=17	=17
16B-	8r
16d-	.
16c	16g
16d-	16f
16B-	8gW
16c	.
16A-	8a-
16B-	.
16G	4b-W
16f	.
16en	.
16dn	.
16e	4cc
16f	.
16d	.
16e	.
=18	=18
16F	8a-
16f	.
16e-	8dd-
16d-	.
16e-	8ccM
16f	.
16d-	8b-
16e-	.
16c	16an
16f	16b-
16e-	16cc
16d-	16b-
16c	8a
16d-	.
16B-	8g
16c	.
=19	=19
16An	8f
16d-	.
16c	8an
16B-	.
16A	8cc
16B-	.
16G	[8ee-
16A	.
16C	16ee-]
16B-	16cc
16A	16dd-
16G	16ee-
16A	8ff
16B-	.
16G	8ee-
16A	.
=20	=20
8B-	16dd-
.	16ee-
16BB-	16dd-M
16AAn	16cc
8BB-	16dd-
.	16ee-
8C	16cc
.	16dd-
4D-W	16b-
.	16aa-
.	16gg
.	16ff
4E-	16gg
.	16aa-
.	16ff
.	16gg
=21	=21
8r	16aa-
.	16dd-
16AA-	16cc
16GG	16b-
8AA-	16cc
.	16dd-
8BB-	16b-
.	16cc
4CW	16a-
.	16gg
.	16ff
.	16een
4D-	16ff
.	16gg
.	16ee
.	16ff
=22	=22
8r	16gg
.	16cc
16GG	16b-
16FF	16a-
8GG	16b-
.	16cc
8AA-	16a-
.	16b-
4BB-W	16g
.	16ff
.	16een
.	16dd
4C	16ee
.	16ff
.	16dd
.	16ee
=23	=23
16FF	8ff
16c	.
16B-	16a-
16c	16g
16A-	8a-W
16B-	.
16G	8b-
16A-	.
16F	4ccW
16A-	.
16G	.
16A-	.
16F	4dd-
16G	.
16E-	.
16F	.
=24	=24
16D-	8r
16F	.
16E-	16b-
16F	16a-
16D-	8b-W
16E-	.
16C	8cc
16D-	.
16BB-	4dd-W
16A-	.
16G	.
16F	.
16G	4ee-
16A-	.
16F	.
16G	.
=25	=25
8A-	16cc
.	16aa-
16E-	16gg
16Dn	16aa-
8E-	16ff
.	16gg
8F	16ee-
.	16ff
4GW	16dd-
.	16bb-
.	16aa-
.	16bb-
4A-	16cc
.	16dd-
.	16b-
.	16cc
=26	=26
8r	16a-
.	16cc
16F	16b-
16E-	16cc
8F	16a-
.	16b-
8G	16g
.	16a-
4A-W	16f
.	16ee-
.	16dd
.	16cc
4B-	16dd
.	16ee-
.	16cc
.	16dd
=27	=27
16G	8ee-
16A-	.
16G	16e-
16F	16d
16G	8e-W
16A-	.
16F	8f
16G	.
16E-	4gW
16e-	.
16d	.
16e-	.
16c	4a-
16d	.
16B-	.
16c	.
=28	=28
16A-	8r
16c	.
16B-	16f
16c	16e-
16A-	8fW
16B-	.
16G	8g
16A-	.
16F	4a-W
16e-	.
16d	.
16c	.
16d	4b-
16e-	.
16c	.
16d	.
=29	=29
16E-	8g
16e-	.
16d	8cc
16c	.
16d	8b-M
16e-	.
16c	8a-
16d	.
16B-	16g
16e-	16a-
16d	16b-
16c	16a-
16B-	8g
16c	.
16A-	8f
16B-	.
=30	=30
16G	8e-
16c	.
16B-	8ff
16A-	.
16G	8ee-W
16A-	.
16F	8dd-
16G	.
16E-	16cc
16A-	16dd-
16G	16ee-
16F	16dd-
16E-	8cc
16F	.
16D-	8b-
16E-	.
=31	=31
16C	8a-
16F	.
16E-	8cc
16D-	.
16C	8ee-
16D-	.
16BB-	[8aa-
16C	.
16FF	16aa-]
16E-	16ff
16Dn	16gg
16C	16aa-
16D	8bb-
16E-	.
16C	8aa-
16D	.
=32	=32
8E-	{8aa-
8GG	32gg}
.	32ff
.	32ee-
.	32ff
8AA-	4ffO
8BB-	.
2EE-;	2ee-;
==|!	==|!
*-	*-
!!!CDT: 1685/3//-1750/7/28
!!!OCY: Deutschland
!!!AGN: polyphony
!!!AST: baroque
!!!AMT: simple quadruple
!!!SCA: Bach-Werke-Verzeichnis
!!!YOR: Bach Gesellschaft
!!!AIN: cemb; clavi
!!!EEV: 1.0
!!!RDT: 1986 November
!!!YER: 1995 May 22
!!!YEN: Canada
!!!EFL: 5/15
!!!EED: David Huron
